X:14023
T:Recovery,The. JC.048
M:2/4
L:1/8
Q:220
S:John Clare,Poet,Helpston. (1793-1864)
R:Misc.
O:England
A:Northamptonshire
N:
Z:P Headford
K:D
AdAd|e/d/e/f/ ee|agec|d/c/d/e/ dd|AdAd|e/d/e/f/ ee|
agec|dfd2|!|agec|dfdA|GG G/F/G/A/|G2Fz|agec|
dfdA|GF/G/ A/G/F/E/|D2z2|!|ff/f/ ff|f3g|fedc|d/c/d/e/f2|
ee/e/ ee|e3f|edcB|A2z2|]
